X:35
T:Jesus Came, the Heavens Adoring
%%stretchlast false
M:4/4
L:1/4
K:C clef=C1
"^vi"[A,Ace] "^iiiÂṗ"[G,Be] "^IV"[F,Aca] "^ii"[DFda] | "^VÂṗ"[B,Gdg]3/2 "^V7"[G,GBf]/ "^I"[CGce] [CEc] | "^VÂṗ"[B,Gdg] "^I"[CGce] "^IV"[Fca] "^IÂṗ"[EGcg] | "^ii7"[DAcf] [DFBf] "^I"[CGce]2 | "^V"[G,GBd] "^VÂṗ"[B,GBd] "^II"[D^FAd] "^iii"[EGB] | "^I"[CEGc] "^VÂṗ"[B,Gd] "^I"[CGce] [CGce] | "^vi"[A,Ace] "^II"[DAd^f] "^iii"[EGBg] "^vi"[A,cea]/ "^IVÂṗ"[A,cfa]/ | "^iiiÂĠ"[B,Beg] "^viiÃẁ7"[B,Adf] "^iii"[E,Ge]2 | "^III"[E^Geb] "^iii"[EGeb] "^viÂṗ"[CAec'] "^viiÂḞÂṗ"[Ddfb]/ "^ii"[Ddfa]/ | "^III"[EBe^g] "^IV"[FAca] "^III"[E^Geb] "^iii"[EGe] | "^vi"[A,Aec'] "^viiÃẁ7ÂĠ"[FAdb]/ "^iiÂṗ"[FAda]/ "^V/vi"[EBe^g] "^viÂṗ"[Ccea] | "^viiÃẁ7Âṗ"[DBfa] "^V/vi"[EBe^g] "^vi"[A,cea]2 |]
